!! 00000] TT[WS
!!!OTL: Mai bianshi
!!!ARE: Asia, China,ÿShanxi Xixian
!! Ethnic Group: Han
!! WI, 75 (2)
!!!SCT: J0091
!!!YEM: Copyright 1995, estate of Helmut Schaffrath.
**kern
*ICvox
*Ivox
*M2/4
*k[b-e-]
*B-:
{16ddd
16fff
16ddd
16ccc
4bb-
=1
16ddd
16fff
16ddd
16ccc
4bb-
=2
8.ccc
16aa
8.ccc
16ddd
=3
8gg
16ff
16gg
4bb-}
=4
{8ddd
16bb-
16ccc
8ddd
8ddd
=5
16bb-
16gg
16bb-
16ccc
4ddd
=6
16ff
16dd
16ff
16gg
8.ddd
16bb-
=7
8.ccc
16gg
4ff}
=8
{16bb-
16gg
16bb-
16ccc
4ddd
=9
16ff
16dd
16ff
16gg
8.ddd
16bb-
=10
8.ccc
16gg
4ff}
==
!!!AGN: Xiaodiao. Laodong, Maimai
!!!ONB: ESAC (Essen Associative Code) Database: CHINA
!!!AMT: simple duple
!!!AIN: vox
!!!EED: Helmut Schaffrath
!!!EEV: 1.0
*-
